src/pages/Main/ui/Program/ScheduleItem/images/lamp.svg

<svg fill="none" height="27" viewBox="0 0 23 27" width="23" xmlns="http://www.w3.org/2000/svg"><g fill="#fff"><path d="m14.5491 20.9895c-.0075 0-.0141 0-.0217 0-.1555-.0121-.2725-.1461-.2602-.2996l.1594-2.0543c.0471-.6075.363-1.1824.8674-1.5769 1.536-1.2021 2.4167-2.9995 2.4167-4.931 0-1.7565-.7147-3.38555-2.0122-4.58852-1.2965-1.2011-2.9946-1.80118-4.7786-1.69047-3.24648.20189-5.864 2.87669-5.95924 6.08929-.0594 2.003.81751 3.8675 2.40631 5.1151.50917.4001.82976.9871.87785 1.6095l.13767 1.7696h2.95321c.1565 0 .2829.1247.2829.2791s-.1264.2791-.2829.2791h-3.21534c-.14804 0-.27062-.1126-.28193-.2577l-.15747-2.0273c-.03677-.4689-.2791-.9117-.66569-1.215-1.7293-1.3584-2.68447-3.3875-2.61941-5.5683.10466-3.49721 2.95508-6.40925 6.48914-6.62975 1.9405-.12095 3.7895.5331 5.202 1.84119 1.3927 1.29042 2.1913 3.11116 2.1913 4.99516 0 2.1035-.9589 4.0601-2.6307 5.3682-.3809.2986-.6204.7294-.6553 1.1825l-.1594 2.0542c-.0113.1461-.1357.2577-.2819.2577z"/><path d="m14.0032 24.6644h-5.33971c-.15652 0-.28287-.1246-.28287-.2791 0-.1544.12635-.2791.28287-.2791h5.33971c.1565 0 .2829.1247.2829.2791 0 .1545-.1264.2791-.2829.2791z"/><path d="m14.3474 22.8251h-6.02799c-.15652 0-.28287-.1247-.28287-.2791 0-.1545.12635-.2792.28287-.2792h6.02799c.1566 0 .2829.1247.2829.2792 0 .1544-.1263.2791-.2829.2791z"/><path d="m12.4871 26.5h-2.3064c-.1565 0-.28283-.1247-.28283-.2791 0-.1545.12633-.2791.28283-.2791h2.3064c.1565 0 .2829.1246.2829.2791 0 .1544-.1264.2791-.2829.2791z"/><path d="m11.3337 3.62231c-.1565 0-.2828-.12467-.2828-.27911v-2.56409c0-.154441.1263-.27911.2828-.27911.1566 0 .2829.124669.2829.27911v2.56409c0 .15444-.1263.27911-.2829.27911z"/><path d="m16.946 5.70447c-.0717 0-.1433-.02698-.198-.08001-.1113-.10793-.1132-.2847-.0038-.39448l1.7142-1.72117c.1094-.10979.2885-.11165.3998-.00372.1113.10792.1132.28469.0038.39447l-1.7142 1.72118c-.0557.05582-.1283.08373-.2018.08373z"/><path d="m5.72058 5.70445c-.07354 0-.14615-.02791-.20178-.08374l-1.71421-1.72117c-.10938-.10978-.10749-.28655.00377-.39448.11126-.10792.29042-.10699.39979.00373l1.71422 1.72117c.10937.10978.10749.28655-.00378.39448-.05468.05303-.12635.08001-.19801.08001z"/><path d="m22.3837 10.7164h-2.5186c-.1565 0-.2828-.1247-.2828-.2791 0-.1545.1263-.2792.2828-.2792h2.5186c.1565 0 .2828.1247.2828.2792 0 .1544-.1263.2791-.2828.2791z"/><path d="m2.80132 10.7164h-2.518521c-.156523 0-.28287339-.1247-.28287339-.2791 0-.1545.12635039-.2792.28287339-.2792h2.518521c.15652 0 .28287.1247.28287.2792 0 .1544-.12635.2791-.28287.2791z"/><path d="m11.3338 20.8676c-.1565 0-.2829-.1247-.2829-.2792v-4.5318c0-.1544.1264-.2791.2829-.2791s.2829.1247.2829.2791v4.5318c0 .1545-.1264.2792-.2829.2792z"/><path d="m11.3337 16.3357c-.0801 0-.1593-.0335-.2159-.0976l-1.32007-1.5296c-.10089-.1172-.08675-.293.03206-.3935.1188-.1005.29701-.0865.39881.0316l1.3201 1.5295c.1009.1173.0868.2931-.032.3936-.0528.0446-.1189.067-.183.067z"/><path d="m11.3329 16.3357c-.0651 0-.1302-.0214-.183-.0669-.1188-.0996-.1329-.2764-.032-.3936l1.3201-1.5295c.1018-.1172.28-.1312.3988-.0316.1188.0995.133.2763.0321.3935l-1.3201 1.5295c-.0556.0651-.1358.0977-.2159.0977z"/></g></svg>

<svg width="23" height="27" viewBox="0 0 23 27" fill="none" xmlns="http://www.w3.org/2000/svg">
    <path d="M14.5491 20.9895C14.5416 20.9895 14.535 20.9895 14.5274 20.9895C14.3719 20.9774 14.2549 20.8434 14.2672 20.6899L14.4266 18.6356C14.4737 18.0281 14.7896 17.4532 15.294 17.0587C16.83 15.8566 17.7107 14.0592 17.7107 12.1277C17.7107 10.3712 16.996 8.74215 15.6985 7.53918C14.402 6.33808 12.7039 5.738 10.9199 5.84871C7.67342 6.0506 5.0559 8.7254 4.96066 11.938C4.90126 13.941 5.77817 15.8055 7.36697 17.0531C7.87614 17.4532 8.19673 18.0402 8.24482 18.6626L8.38249 20.4322H11.3357C11.4922 20.4322 11.6186 20.5569 11.6186 20.7113C11.6186 20.8657 11.4922 20.9904 11.3357 20.9904H8.12036C7.97232 20.9904 7.84974 20.8778 7.83843 20.7327L7.68096 18.7054C7.64419 18.2365 7.40186 17.7937 7.01527 17.4904C5.28597 16.132 4.3308 14.1029 4.39586 11.9221C4.50052 8.42489 7.35094 5.51285 10.885 5.29235C12.8255 5.1714 14.6745 5.82545 16.087 7.13354C17.4797 8.42396 18.2783 10.2447 18.2783 12.1287C18.2783 14.2322 17.3194 16.1888 15.6476 17.4969C15.2667 17.7955 15.0272 18.2263 14.9923 18.6794L14.8329 20.7336C14.8216 20.8797 14.6972 20.9913 14.551 20.9913L14.5491 20.9895Z" fill="white"/>
    <path d="M14.0032 24.6644H8.66349C8.50697 24.6644 8.38062 24.5398 8.38062 24.3853C8.38062 24.2309 8.50697 24.1062 8.66349 24.1062H14.0032C14.1597 24.1062 14.2861 24.2309 14.2861 24.3853C14.2861 24.5398 14.1597 24.6644 14.0032 24.6644Z" fill="white"/>
    <path d="M14.3474 22.8251H8.31941C8.16289 22.8251 8.03654 22.7004 8.03654 22.546C8.03654 22.3915 8.16289 22.2668 8.31941 22.2668H14.3474C14.504 22.2668 14.6303 22.3915 14.6303 22.546C14.6303 22.7004 14.504 22.8251 14.3474 22.8251Z" fill="white"/>
    <path d="M12.4871 26.5H10.1807C10.0242 26.5 9.89787 26.3753 9.89787 26.2209C9.89787 26.0664 10.0242 25.9418 10.1807 25.9418H12.4871C12.6436 25.9418 12.77 26.0664 12.77 26.2209C12.77 26.3753 12.6436 26.5 12.4871 26.5Z" fill="white"/>
    <path d="M11.3337 3.62231C11.1772 3.62231 11.0509 3.49764 11.0509 3.3432V0.77911C11.0509 0.624669 11.1772 0.5 11.3337 0.5C11.4903 0.5 11.6166 0.624669 11.6166 0.77911V3.3432C11.6166 3.49764 11.4903 3.62231 11.3337 3.62231Z" fill="white"/>
    <path d="M16.946 5.70447C16.8743 5.70447 16.8027 5.67749 16.748 5.62446C16.6367 5.51653 16.6348 5.33976 16.7442 5.22998L18.4584 3.50881C18.5678 3.39902 18.7469 3.39716 18.8582 3.50509C18.9695 3.61301 18.9714 3.78978 18.862 3.89956L17.1478 5.62074C17.0921 5.67656 17.0195 5.70447 16.946 5.70447Z" fill="white"/>
    <path d="M5.72058 5.70445C5.64704 5.70445 5.57443 5.67654 5.5188 5.62071L3.80459 3.89954C3.69521 3.78976 3.6971 3.61299 3.80836 3.50506C3.91962 3.39714 4.09878 3.39807 4.20815 3.50879L5.92237 5.22996C6.03174 5.33974 6.02986 5.51651 5.91859 5.62444C5.86391 5.67747 5.79224 5.70445 5.72058 5.70445Z" fill="white"/>
    <path d="M22.3837 10.7164H19.8651C19.7086 10.7164 19.5823 10.5917 19.5823 10.4373C19.5823 10.2828 19.7086 10.1581 19.8651 10.1581H22.3837C22.5402 10.1581 22.6665 10.2828 22.6665 10.4373C22.6665 10.5917 22.5402 10.7164 22.3837 10.7164Z" fill="white"/>
    <path d="M2.80132 10.7164H0.282799C0.126276 10.7164 -7.43866e-05 10.5917 -7.43866e-05 10.4373C-7.43866e-05 10.2828 0.126276 10.1581 0.282799 10.1581H2.80132C2.95784 10.1581 3.08419 10.2828 3.08419 10.4373C3.08419 10.5917 2.95784 10.7164 2.80132 10.7164Z" fill="white"/>
    <path d="M11.3338 20.8676C11.1773 20.8676 11.0509 20.7429 11.0509 20.5884V16.0566C11.0509 15.9022 11.1773 15.7775 11.3338 15.7775C11.4903 15.7775 11.6167 15.9022 11.6167 16.0566V20.5884C11.6167 20.7429 11.4903 20.8676 11.3338 20.8676Z" fill="white"/>
    <path d="M11.3337 16.3357C11.2536 16.3357 11.1744 16.3022 11.1178 16.2381L9.79773 14.7085C9.69684 14.5913 9.71098 14.4155 9.82979 14.315C9.94859 14.2145 10.1268 14.2285 10.2286 14.3466L11.5487 15.8761C11.6496 15.9934 11.6355 16.1692 11.5167 16.2697C11.4639 16.3143 11.3978 16.3367 11.3337 16.3367V16.3357Z" fill="white"/>
    <path d="M11.3329 16.3357C11.2678 16.3357 11.2027 16.3143 11.1499 16.2688C11.0311 16.1692 11.017 15.9924 11.1179 15.8752L12.438 14.3457C12.5398 14.2285 12.718 14.2145 12.8368 14.3141C12.9556 14.4136 12.9698 14.5904 12.8689 14.7076L11.5488 16.2371C11.4932 16.3022 11.413 16.3348 11.3329 16.3348V16.3357Z" fill="white"/>
</svg>
